X:112
T: Lieblich gesellet
N: A0131
O: Europa, Mitteleuropa, Deutschland
N: 68 Lieder. Nuernberg gedr. von Berg und Newber (c. 1542) No. 29.
N: Und Forster II. 1540 No. 14.
R: Romanze, Ballade, Lied
M: 3/2
L: 1/2
K: F
F | A2A | A2F | c2d | cd2 | c3- | c2
d | c2B | AG2 | F2
F | A2A | A2F | c2d | cd2 | c3- | c2
d | c2B | AG2 | F2
f | ffe | efd | c2f | egf | ed2 | c3- | c2
d | c2B | AG2 | F2

